shader_type canvas_item;


/*
	MIT License
	Copyright (c) 2023 Ata Deniz Oktay
	Simple Menu Transition Shader
*/


uniform float transition_progress : hint_range(0.0, 1.0, 0.01);


void vertex() {
	VERTEX.x = VERTEX.x * transition_progress;
}


void fragment() {
	COLOR.a = COLOR.a * transition_progress;
}