shader_type canvas_item;

uniform vec3 hit_color : source_color = vec3(1,1,1);
uniform bool hit = false;

void fragment() {
	vec4 color = texture(TEXTURE, UV);
	
	if(hit)
	{
		COLOR = vec4(hit_color, color.a);
	}
	else{
		COLOR = color;
	}
}
