shader_type canvas_item;

uniform float phase_trashold : hint_range(0.0, 1.0, 0.01) = 0.5; 
uniform float phase_factor : hint_range(0.0, 1.0, 0.01) = 0.5; 
uniform vec4 blend_color : source_color = vec4(0.0, 0.0, 1.0, 1.0);


void fragment() {
	if (length(COLOR.rgb) < phase_trashold) {
		COLOR.a = COLOR.a * phase_factor;
	}else{
		COLOR.a = COLOR.a * blend_color.a;
	}
	COLOR.rgb = 1.0 - (1.0 - COLOR.rgb) * (1.0 - blend_color.rgb);
}