shader_type canvas_item;

uniform vec2 speed = vec2(1.0, 0.0);
varying vec4 modulate;

void vertex() {
	modulate = COLOR;
}

void fragment() {
	COLOR = texture(TEXTURE, mod(UV + TIME * speed, 1.0)) * modulate;
}