
shader_type canvas_item;

uniform sampler2D palette;
uniform float desaturation: hint_range(0.0, 1.0, 0.01) = 0.0;


void fragment() {
	vec4 color = texture(TEXTURE, UV);
	vec4 result_color = texture(palette, color.rg);
    result_color.a = color.a;
	result_color.rgb = mix(result_color.rgb, vec3((result_color.r + result_color.g + result_color.b) / 3.0), desaturation);
	COLOR = result_color;
}